X: 7610
T:Polkett
R:Polkett
O:Sweden
M:2/4
L:1/8
C:e. Per August Stenlund
A:Norrbotten
K:G
d2B2 | G3B | dA/A/ AA | GB GB | \
d2B2 | G3B | dA/A/ AA | GB G2 :|
|: \
K:D
Af/f/ fe | dA/A/ Ac | eA/A/ Ac | def2 | \
Af/f/ fe | dA/A/ Ac | eA/A/ Ac | edd2 :|
